src/standard/graph-exponential-up.svg

<svg xmlns="http://www.w3.org/2000/svg" viewBox="0 0 36 36">
  <path d="M17.37 8v10a.63.63 0 0 0 1.25 0V8a.63.63 0 0 0-1.25 0Zm7 0v7a.63.63 0 0 0 1.25 0V8a.63.63 0 0 0-1.25 0Zm-14 0v12a.63.63 0 0 0 1.25 0V8a.63.63 0 0 0-1.25 0ZM31 17.89a.63.63 0 0 0-.63.62v11.87H5.62v-2.93a.63.63 0 0 0-1.25 0V31a.63.63 0 0 0 .63.62h26a.62.62 0 0 0 .62-.62V18.51a.62.62 0 0 0-.62-.62Z"/>
  <path d="M5 21a.63.63 0 0 0 .62-.63V5.62h24.75V9a.63.63 0 0 0 1.25 0V5a.62.62 0 0 0-.62-.62H5a.63.63 0 0 0-.63.62v15.36A.63.63 0 0 0 5 21Zm27.35-9.24a.62.62 0 0 0-.87.17C28.73 16 21.5 22.93 4 23.27a.63.63 0 0 0 0 1.25c18.07-.34 25.64-7.61 28.52-11.9a.62.62 0 0 0-.17-.86Z"/>
</svg>

<svg id="b6055e7f-33cb-4e30-9e57-19f8bff990fc" data-name="Icon" xmlns="http://www.w3.org/2000/svg" viewBox="0 0 36 36">
  <title>Exponential graph up icon - Black</title>
<desc>increase, grow, finance, chart, plot, gain, fast, diagrams and graphs</desc>
<metadata><?xpacket begin="﻿" id="W5M0MpCehiHzreSzNTczkc9d"?>
<x:xmpmeta xmlns:x="adobe:ns:meta/" x:xmptk="Adobe XMP Core 8.0-c001 1.000000, 0000/00/00-00:00:00        ">
   <rdf:RDF xmlns:rdf="http://www.w3.org/1999/02/22-rdf-syntax-ns#">
      <rdf:Description rdf:about=""
            xmlns:xmp="http://ns.adobe.com/xap/1.0/"
            xmlns:dc="http://purl.org/dc/elements/1.1/"
            xmlns:cq="http://www.day.com/jcr/cq/1.0"
            xmlns:tiff="http://ns.adobe.com/tiff/1.0/">
         <xmp:rhcc-effective-on>2023-12-08T17:34:54.431Z</xmp:rhcc-effective-on>
         <xmp:rhcc-metadata-complete-moderator>pending</xmp:rhcc-metadata-complete-moderator>
         <xmp:rhcc-translation-id>TRA67e83932-7e05-45e7-aaa2-2c5113cfa6a4</xmp:rhcc-translation-id>
         <xmp:brand-content-type>Icon</xmp:brand-content-type>
         <xmp:CreateDate>2023-12-08T17:34:54.431Z</xmp:CreateDate>
         <xmp:rhcc-effective-on-set-on-upload>true</xmp:rhcc-effective-on-set-on-upload>
         <xmp:rhcc-metadata-complete-uploader>pending</xmp:rhcc-metadata-complete-uploader>
         <xmp:rhcc-file-last-modified>2023-12-08T17:35:17.295Z</xmp:rhcc-file-last-modified>
         <xmp:rhcc-audience>rhcc-audience:internal</xmp:rhcc-audience>
         <xmp:rhcc-rights-restricted>no</xmp:rhcc-rights-restricted>
         <xmp:brand-content-subtype>Icon</xmp:brand-content-subtype>
         <xmp:rhcc-derivative-id>DER67e83932-7e05-45e7-aaa2-2c5113cfa6a4</xmp:rhcc-derivative-id>
         <xmp:brand-logo-color>Black</xmp:brand-logo-color>
         <xmp:rhcc-notify-portal-subscribers-on-change>yes</xmp:rhcc-notify-portal-subscribers-on-change>
         <dc:format>image/svg+xml</dc:format>
         <dc:modified>2024-02-09T20:34:29.281Z</dc:modified>
         <dc:title>
            <rdf:Alt>
               <rdf:li xml:lang="x-default">Exponential graph up icon - Black</rdf:li>
            </rdf:Alt>
         </dc:title>
         <dc:description>
            <rdf:Alt>
               <rdf:li xml:lang="x-default">increase, grow, finance, chart, plot, gain, fast, diagrams and graphs</rdf:li>
            </rdf:Alt>
         </dc:description>
         <cq:lastReplicationAction_scene7>Activate</cq:lastReplicationAction_scene7>
         <cq:lastReplicationAction_publish>Activate</cq:lastReplicationAction_publish>
         <cq:lastReplicated_publish>2024-02-09T22:21:59.541Z</cq:lastReplicated_publish>
         <cq:lastReplicatedBy>workflow-process-service</cq:lastReplicatedBy>
         <cq:lastReplicationAction>Activate</cq:lastReplicationAction>
         <cq:lastReplicatedBy_publish>workflow-process-service</cq:lastReplicatedBy_publish>
         <cq:isDelivered>true</cq:isDelivered>
         <cq:lastReplicated>2024-02-09T22:21:59.541Z</cq:lastReplicated>
         <cq:lastReplicatedBy_scene7>workflow-process-service</cq:lastReplicatedBy_scene7>
         <cq:lastReplicated_scene7>2024-02-09T22:21:59.541Z</cq:lastReplicated_scene7>
         <tiff:ImageLength>36</tiff:ImageLength>
         <tiff:ImageWidth>36</tiff:ImageWidth>
      </rdf:Description>
   </rdf:RDF>
</x:xmpmeta>
                                                                                                    
                                                                                                    
                                                                                                    
                                                                                                    
                                                                                                    
                                                                                                    
                                                                                                    
                                                                                                    
                                                                                                    
                                                                                                    
                                 
<?xpacket end="w"?></metadata>
<g>
    <path d="M17.37,8V18a.63.63,0,0,0,1.25,0V8A.63.63,0,0,0,17.37,8Z"/>
    <path d="M24.37,8v7a.63.63,0,0,0,1.25,0V8A.63.63,0,0,0,24.37,8Z"/>
    <path d="M10.37,8V20a.63.63,0,0,0,1.25,0V8A.63.63,0,0,0,10.37,8Z"/>
    <path d="M31,17.89a.63.63,0,0,0-.63.62V30.38H5.62V27.45a.63.63,0,0,0-1.25,0V31a.63.63,0,0,0,.63.62H31a.62.62,0,0,0,.62-.62V18.51A.62.62,0,0,0,31,17.89Z"/>
    <path d="M5,21a.63.63,0,0,0,.62-.63V5.62H30.37V9a.63.63,0,0,0,1.25,0V5A.62.62,0,0,0,31,4.38H5A.63.63,0,0,0,4.37,5V20.36A.63.63,0,0,0,5,21Z"/>
    <path d="M32.35,11.76a.62.62,0,0,0-.87.17C28.73,16,21.5,22.93,4,23.27a.63.63,0,0,0,0,1.25c18.07-.34,25.64-7.61,28.52-11.9A.62.62,0,0,0,32.35,11.76Z"/>
  </g>
</svg>
